X: 14
M: C|
L: 1/8
P: AA BB ad lib.
Q: 1/2=88 "flowing"
K: Bb
V: 1
"A"|:\
bagf gfed | edcB A2F2 |\
efg2 e2g2 | def2 c2f2 |\
d2cB G2c2 | F2A2 B4 :|
"B"|:\
fdBd fdcB | AGAB cAGF |\
bfd2 g2c2 | fdB2 e2A2 |\
dBG2 F2f2 | d2B2 B4 :|
V: 2
|: D4 E4 | C4 C2A,2 | B,2G,2 A,2C2 | F2C2 A,4 |
|: D4 B,2D2 | C4 A,4 | B,4 C4 | B,2E2 C2F2 |
V: 3 clef=bass middle=d
|: "Bb"B4- "Eb"B4 | "Cm"e4 "F"f4 | "Eb"e4 "F"f4 | "F"F4 f2ed |
"Cm"c4 c'4 | "Bb"b4 "F"a4 | "Bb"b2d2 "Eb"e2-"Cm"e2 | "Bb"f2"F"F2 "Bb"B4 :|
|: "Bb"B8 | "F"F4 f2e2 | "Bb"d2B2 "F"A2f2 | "Gm"g2"Eb"e2 "F7"f2e2 |
"Bb"d4 "Eb"e2-"Cm"e2 | "Bb"d4 "Cm"c2-"F"c2 | "Bb"B2-"Gm"B2 "F"A2"Bb"d2 | "Eb"e2"F"f2 "Bb"B4 :|


